img/pdf_icon.svg

<svg height="196" viewBox="0 0 154 196" width="154" xmlns="http://www.w3.org/2000/svg"><g fill="none" fill-rule="evenodd"><path d="m151.387 42.396-37.177-39.7c-1.551-1.665-4.27-2.696-6.547-2.696h-101.357c-3.378 0-6.306 2.483-6.306 5.861v184.278c0 3.378 2.928 5.861 6.306 5.861h141.389c3.378 0 6.306-2.482 6.306-5.861v-141.334c0-2.178-1.128-4.812-2.614-6.409zm-37.387-28.504 26.625 29.108h-26.625zm-106 174.108v-180.265l98-.002v38.946c0 2.209 1.58 4.321 3.789 4.321h36.211v137z" fill="#d3205c" fill-rule="nonzero"/><path d="m35.84 166.675h1.484c.606 0 1.27-.793 1.27-1.311v-19.005c0-.529-.663-1.278-1.27-1.278h-1.484v-4.578h13.887c8.174 0 12.633 2.884 12.633 9.695 0 6.643-4.717 9.649-12.936 9.649h-2.537v6.827h3.552v4.419h-14.599zm13.455-11.324c3.674 0 4.625-2.087 4.625-5.015 0-2.882-.951-4.95-4.625-4.95h-2.535v9.965zm16.26 11.324h1.475c.615 0 1.271-.793 1.271-1.311v-19.005c0-.529-.655-1.278-1.271-1.278h-1.475v-4.578h13.322c10.882 0 16.551 4.715 16.551 15.119 0 10.216-5.758 15.472-16.771 15.472h-13.102zm13.101-.217c5.502 0 8.211-3.287 8.211-10.62 0-7.297-2.661-10.453-8.211-10.453h-2.055v21.073zm18.891.217h1.489c.606 0 1.263-.793 1.263-1.311v-19.005c0-.529-.656-1.278-1.263-1.278h-1.489v-4.578h24.855v9.437h-4.893l-.738-4.505h-8.18v8.565h3.985l.354-2.883h4.495v10.621h-4.495l-.354-3.015h-3.985v7.954h3.546v4.419h-14.591v-4.421z" fill="#d3205c" fill-rule="nonzero"/><path d="m32.733 106.82c7.517-9.07 48.767-27.07 77.241-23.013 28.574 4.071 21.646 25.962 10.025 21.443-28.511-11.084-55.655-51.904-65.633-66.549-10.866-15.951 12.353-22.083 18.884 2.299 5.906 22.05-24.266 73.924-31.369 80.162-7.109 6.26-19.087-2.348-9.148-14.342z" stroke="#d3205c" stroke-width="8"/></g></svg>

<svg xmlns="http://www.w3.org/2000/svg" width="154" height="196" viewBox="0 0 154 196">
  <g fill="none" fill-rule="evenodd">
    <path fill="#D3205C" fill-rule="nonzero" d="M151.387,42.396 L114.21,2.696 C112.659,1.031 109.94,0 107.663,0 L6.306,0 C2.928,0 0,2.483 0,5.861 L0,190.139 C0,193.517 2.928,196 6.306,196 L147.695,196 C151.073,196 154.001,193.518 154.001,190.139 L154.001,48.805 C154.001,46.627 152.873,43.993 151.387,42.396 Z M114,13.892 L140.625,43 L114,43 L114,13.892 Z M8,188 L8,7.735 L106,7.733 L106,46.679 C106,48.888 107.58,51 109.789,51 L146,51 L146,188 L8,188 Z"/>
    <path fill="#D3205C" fill-rule="nonzero" d="M35.84 166.675L37.324 166.675C37.93 166.675 38.594 165.882 38.594 165.364L38.594 146.359C38.594 145.83 37.931 145.081 37.324 145.081L35.84 145.081 35.84 140.503 49.727 140.503C57.901 140.503 62.36 143.387 62.36 150.198 62.36 156.841 57.643 159.847 49.424 159.847L46.887 159.847 46.887 166.674 50.439 166.674 50.439 171.093 35.84 171.093 35.84 166.675zM49.295 155.351C52.969 155.351 53.92 153.264 53.92 150.336 53.92 147.454 52.969 145.386 49.295 145.386L46.76 145.386 46.76 155.351 49.295 155.351 49.295 155.351zM65.555 166.675L67.03 166.675C67.645 166.675 68.301 165.882 68.301 165.364L68.301 146.359C68.301 145.83 67.646 145.081 67.03 145.081L65.555 145.081 65.555 140.503 78.877 140.503C89.759 140.503 95.428 145.218 95.428 155.622 95.428 165.838 89.67 171.094 78.657 171.094L65.555 171.094 65.555 166.675zM78.656 166.458C84.158 166.458 86.867 163.171 86.867 155.838 86.867 148.541 84.206 145.385 78.656 145.385L76.601 145.385 76.601 166.458 78.656 166.458zM97.547 166.675L99.036 166.675C99.642 166.675 100.299 165.882 100.299 165.364L100.299 146.359C100.299 145.83 99.643 145.081 99.036 145.081L97.547 145.081 97.547 140.503 122.402 140.503 122.402 149.94 117.509 149.94 116.771 145.435 108.591 145.435 108.591 154 112.576 154 112.93 151.117 117.425 151.117 117.425 161.738 112.93 161.738 112.576 158.723 108.591 158.723 108.591 166.677 112.137 166.677 112.137 171.096 97.546 171.096 97.546 166.675 97.547 166.675z"/>
    <path stroke="#D3205C" stroke-width="8" d="M32.733,106.82 C40.25,97.75 81.5,79.75 109.974,83.807 C138.548,87.878 131.62,109.769 119.999,105.25 C91.488,94.166 64.344,53.346 54.366,38.701 C43.5,22.75 66.719,16.618 73.25,41 C79.156,63.05 48.984,114.924 41.881,121.162 C34.772,127.422 22.794,118.814 32.733,106.82 Z"/>
  </g>
</svg>
